archdroid-icon-theme/Archdroid-Red/places/scalable/folder-collection-xubuntu.svg

<svg fill="#F44336" height="48" viewBox="0 0 48 48" width="48" xmlns="http://www.w3.org/2000/svg"><g fill="#F44336"><path d="m8 12h-4v28c0 2.21 1.79 4 4 4h28v-4h-28z"/><path d="m16 4c-2.21 0-4 1.79-4 4v24c0 2.21 1.79 4 4 4h24c2.21 0 4-1.79 4-4v-24c0-2.21-1.79-4-4-4zm17.251953 6a.399716.398548 0 0 0 .050781.001953c.055713-.003273.043179-.001002.058594.009766s.052846.048537.113281.121094c.087784.105662.115944.160752.132813.251953a.399716.398548 0 0 0 0 .019531c.128957 1.976387-.217255 3.995481-.703125 5.917969a.399716.398548 0 0 0 -.070313.167968c-.03564.221967-.113013.376706-.234375.460938-.112149.077814-.161018.092479-.193359.085937-.043209-.008862-.115978-.077753-.173828-.152343a.399716.398548 0 0 0 -.03125-.070313c-.31098-1.134614.076515-2.339132.197266-3.521484a.399716.398548 0 0 0 0-.056641c.246342-1.079737.252045-2.282469.796875-3.201172-.011885.019202.008164-.005536.05664-.035156zm4.466797.933594a.374518.373424 0 0 0 .001953 0c.08033-.009968.229288.088696.244141.11914.050415.103052.046945.156074-.009766.292969a.374518.373424 0 0 0 -.001953.007813c-.820008 2.084934-1.818112 4.229808-3.138672 6.039062a.374518.373424 0 0 0 -.009765.013672c-.01217.018243-.005095.041216-.013672.0625-.098755.14742-.33894.23073-.470703.203125-.139747-.030206-.274783-.16311-.279297-.398437.097606-1.488526 1.025563-2.765691 1.753906-4.052735a.374518.373424 0 0 0 .041016-.109375c.578394-.787716 1.009731-1.768175 1.845703-2.173828a.374518.373424 0 0 0 .037109-.003906zm-12.984375.601562c.135506-.024718.274945-.014559.400391 0 .416883.029038.761335.215661 1.003906.5.408131.477933.601109 1.186196.726562 1.925782.124154.736522.159736 1.526643.175782 2.125v.724609c-.000137.017439 0 .035789 0 .048828 0 .033438-.016046.072525 0 .101563.01757.030557.070486.031389.099609.048828.023347.014479.026151.02219.050781.02539.045731.014559.091189.036303.175782.050782.285894.052396.741913.072843 1.228515.148437.973493.150973 2.2482.431272 3.560547.775391 1.312916.344262 2.629635.816266 3.685547 1.5 1.051965.681254 1.840529 1.563327 2.003906 2.75.10327.736098-.458642 1.475824-1.228515 2.15039-.768558.673551-1.77351 1.304729-2.857422 1.898438-1.083479.59326-2.211738 1.131468-3.109375 1.550781-.448839.209729-.847636.354411-1.152344.5-1.550955.623802-3.296756 1.180632-5.140625 1.550781-.072928 0-.246879.043229-.324219.048828-9.3891.811285-5.015625-10.773437-5.015625-10.773437.00053 0 .231358-.5476.326172-.875.018934-.074155.050781-.273215.050781-.349609-.013077-.077115-.06225-.22098-.101562-.375-.09175-.365358-.232325-.811971-.324219-1.351563-.090418-.540768-.149392-1.16049-.025391-1.699219.1234-.530585.440378-1.038944 1.001954-1.349609.217323-.107992.467543-.152006.677734-.099609.217764.053756.443895.214579.626953.375.366259.321144.695771.785705.976563 1.298828.279765.51109.53291 1.056256.728515 1.5.098015.222823.153126.399224.22461.550781.032091.066875.055793.161381.076171.199219.01757.036397 0 .037069 0 .02539.019015.030558.070487.033343.09961.050782-.019014-.014559.062261.034349.125.048828.092038.023278.160938.05638.25.050781.045209 0 .090609-.023103.126953-.050781.016046 0-.016046-.040109 0-.048828.029203-.034958.048828-.032576.048828-.076172v-.09961c-.037788-.13235-.115138-.32595-.224609-.724609-.127347-.460774-.244492-1.065274-.326172-1.650391-.081697-.586285-.122541-1.15881 0-1.673828.120343-.503379.398251-.934318.902344-1.125.142526-.055276.342372-.176294.476562-.201172z"/></g></svg>

<svg fill="#F44336" height="48" version="1.1" viewBox="0 0 48 48" width="48" xmlns="http://www.w3.org/2000/svg"><path d="m8 12l-4 0 0 28c0 2.21 1.79 4 4 4l28 0 0-4-28 0 0-28z"/><path d="M16 4C13.79 4 12 5.79 12 8L12 32C12 34.21 13.79 36 16 36L40 36C42.21 36 44 34.21 44 32L44 8C44 5.79 42.21 4 40 4L16 4zM33.251953 10A .399716.398548 0 0 0 33.302734 10.001953C33.358447 9.99868 33.345913 10.000951 33.361328 10.011719 33.376743 10.022487 33.414174 10.060256 33.474609 10.132813 33.562393 10.238475 33.590553 10.293565 33.607422 10.384766A.399716.398548 0 0 0 33.607422 10.404297C33.736379 12.380684 33.390167 14.399778 32.904297 16.322266A.399716.398548 0 0 0 32.833984 16.490234C32.798344 16.712201 32.720971 16.86694 32.599609 16.951172 32.48746 17.028986 32.438591 17.043651 32.40625 17.037109 32.363041 17.028247 32.290272 16.959356 32.232422 16.884766A.399716.398548 0 0 0 32.201172 16.814453C31.890192 15.679839 32.277687 14.475321 32.398438 13.292969A.399716.398548 0 0 0 32.398438 13.236328C32.64478 12.156591 32.650483 10.953859 33.195313 10.035156 33.183428 10.054358 33.203477 10.02962 33.251953 10zM37.71875 10.933594A.374518.373424 0 0 0 37.720703 10.933594C37.801033 10.923626 37.949991 11.02229 37.964844 11.052734 38.015259 11.155786 38.011789 11.208808 37.955078 11.345703A.374518.373424 0 0 0 37.953125 11.353516C37.133117 13.43845 36.135013 15.583324 34.814453 17.392578A.374518.373424 0 0 0 34.804688 17.40625C34.792518 17.424493 34.799593 17.447466 34.791016 17.46875 34.692261 17.61617 34.452076 17.69948 34.320313 17.671875 34.180566 17.641669 34.04553 17.508765 34.041016 17.273438 34.138622 15.784912 35.066579 14.507747 35.794922 13.220703A.374518.373424 0 0 0 35.835938 13.111328C36.414332 12.323612 36.845669 11.343153 37.681641 10.9375A.374518.373424 0 0 0 37.71875 10.933594zM24.734375 11.535156C24.869881 11.510438 25.00932 11.520597 25.134766 11.535156 25.551649 11.564194 25.896101 11.750817 26.138672 12.035156 26.546803 12.513089 26.739781 13.221352 26.865234 13.960938 26.989388 14.69746 27.02497 15.487581 27.041016 16.085938L27.041016 16.810547C27.040879 16.827986 27.041016 16.846336 27.041016 16.859375 27.041016 16.892813 27.02497 16.9319 27.041016 16.960938 27.058586 16.991495 27.111502 16.992327 27.140625 17.009766 27.163972 17.024245 27.166776 17.031956 27.191406 17.035156 27.237137 17.049715 27.282595 17.071459 27.367188 17.085938 27.653082 17.138334 28.109101 17.158781 28.595703 17.234375 29.569196 17.385348 30.843903 17.665647 32.15625 18.009766 33.469166 18.354028 34.785885 18.826032 35.841797 19.509766 36.893762 20.19102 37.682326 21.073093 37.845703 22.259766 37.948973 22.995864 37.387061 23.73559 36.617188 24.410156 35.84863 25.083707 34.843678 25.714885 33.759766 26.308594 32.676287 26.901854 31.548028 27.440062 30.650391 27.859375 30.201552 28.069104 29.802755 28.213786 29.498047 28.359375 27.947092 28.983177 26.201291 29.540007 24.357422 29.910156 24.284494 29.910156 24.110543 29.953385 24.033203 29.958984 14.644103 30.770269 19.017578 19.185547 19.017578 19.185547 19.018108 19.185547 19.248936 18.637947 19.34375 18.310547 19.362684 18.236392 19.394531 18.037332 19.394531 17.960938 19.381454 17.883823 19.332281 17.739958 19.292969 17.585938 19.201219 17.220580000000003 19.060644 16.773967 18.96875 16.234375 18.878332 15.693607 18.819358 15.073885 18.943359 14.535156 19.066759 14.004571 19.383737 13.496212 19.945313 13.185547 20.162636 13.077555 20.412856 13.033541 20.623047 13.085938 20.840811 13.139694 21.066942 13.300517 21.25 13.460938 21.616259 13.782082 21.945771 14.246643 22.226563 14.759766 22.506328 15.270856 22.759473 15.816022 22.955078 16.259766 23.053093 16.482589 23.108204 16.65899 23.179688 16.810547 23.211779 16.877422 23.235481 16.971928 23.255859 17.009766 23.273429 17.046163 23.255859 17.046835 23.255859 17.035156 23.274874 17.065714 23.326346 17.068499 23.355469 17.085938 23.336455 17.071379 23.41773 17.120287 23.480469 17.134766 23.572507 17.158044 23.641407 17.191146 23.730469 17.185547 23.775678 17.185547 23.821078 17.162444 23.857422 17.134766 23.873468 17.134766 23.841376 17.094657 23.857422 17.085938 23.886625 17.05098 23.90625 17.053362 23.90625 17.009766L23.90625 16.910156C23.868462 16.777806000000003 23.791112 16.584206 23.681641 16.185547 23.554294 15.724773 23.437149 15.120273 23.355469 14.535156 23.273772 13.948871 23.232928 13.376346 23.355469 12.861328 23.475812 12.357949 23.75372 11.92701 24.257813 11.736328 24.400339 11.681052 24.600185 11.560034 24.734375 11.535156z"/></svg>
